svgs/solid/message-quote.svg

<svg xmlns="http://www.w3.org/2000/svg" viewBox="0 0 512 512"><!--! Font Awesome Pro 6.6.0 by @fontawesome - https://fontawesome.com License - https://fontawesome.com/license (Commercial License) Copyright 2024 Fonticons, Inc. --><path d="M0 64C0 28.7 28.7 0 64 0L448 0c35.3 0 64 28.7 64 64l0 288c0 35.3-28.7 64-64 64l-138.7 0L185.6 508.8c-4.8 3.6-11.3 4.2-16.8 1.5s-8.8-8.2-8.8-14.3l0-80-96 0c-35.3 0-64-28.7-64-64L0 64zm160 48c-17.7 0-32 14.3-32 32l0 48c0 17.7 14.3 32 32 32l32 0 0 7.3c0 11.7-8.5 21.7-20.1 23.7l-7.9 1.3c-13.1 2.2-21.9 14.5-19.7 27.6s14.5 21.9 27.6 19.7l7.9-1.3c34.7-5.8 60.2-35.8 60.2-71l0-39.3 0-24 0-24c0-17.7-14.3-32-32-32l-48 0zm224 80l0-24 0-24c0-17.7-14.3-32-32-32l-48 0c-17.7 0-32 14.3-32 32l0 48c0 17.7 14.3 32 32 32l32 0 0 7.3c0 11.7-8.5 21.7-20.1 23.7l-7.9 1.3c-13.1 2.2-21.9 14.5-19.7 27.6s14.5 21.9 27.6 19.7l7.9-1.3c34.7-5.8 60.2-35.8 60.2-71l0-39.3z"/></svg>

<svg xmlns="http://www.w3.org/2000/svg" viewBox="0 0 512 512"><!--! Font Awesome Pro 6.4.0 by @fontawesome - https://fontawesome.com License - https://fontawesome.com/license (Commercial License) Copyright 2023 Fonticons, Inc. --><path d="M0 64C0 28.7 28.7 0 64 0H448c35.3 0 64 28.7 64 64V352c0 35.3-28.7 64-64 64H309.3L185.6 508.8c-4.8 3.6-11.3 4.2-16.8 1.5s-8.8-8.2-8.8-14.3V416H64c-35.3 0-64-28.7-64-64V64zm160 48c-17.7 0-32 14.3-32 32v48c0 17.7 14.3 32 32 32h32v7.3c0 11.7-8.5 21.7-20.1 23.7l-7.9 1.3c-13.1 2.2-21.9 14.5-19.7 27.6s14.5 21.9 27.6 19.7l7.9-1.3c34.7-5.8 60.2-35.8 60.2-71V192 168 144c0-17.7-14.3-32-32-32H160zm224 80V168 144c0-17.7-14.3-32-32-32H304c-17.7 0-32 14.3-32 32v48c0 17.7 14.3 32 32 32h32v7.3c0 11.7-8.5 21.7-20.1 23.7l-7.9 1.3c-13.1 2.2-21.9 14.5-19.7 27.6s14.5 21.9 27.6 19.7l7.9-1.3c34.7-5.8 60.2-35.8 60.2-71V192z"/></svg>
